images/trainline/faster-load-time-icon.svg

<svg height="70" viewBox="0 0 70 70" width="70" xmlns="http://www.w3.org/2000/svg"><path d="m35 0c19.3294231 0 35 15.6692308 35 35 0 19.3294231-15.6705769 35-35 35s-35-15.6705769-35-35c0-19.3307692 15.6705769-35 35-35zm2.6923077 64.4875c14.1844231-1.2855769 25.5096154-12.6107692 26.7951923-26.7951923h-4.9875v-5.3846154h4.9875c-1.2855769-14.1844231-12.6107692-25.50961538-26.7951923-26.79653845v4.98884615h-5.3846154v-4.98884615c-14.1844231 1.28692307-25.50961538 12.61211535-26.7951923 26.79653845h4.9875v5.3846154h-4.9875c1.28557692 14.1844231 12.6107692 25.5096154 26.7951923 26.7951923v-4.9875h5.3846154zm0-46.9879038v14.8076923h6.7307692v5.3846153h-12.1153846v-20.1923076z" fill="#fff" fill-rule="evenodd"/></svg>

<svg height="70" width="70" xmlns="http://www.w3.org/2000/svg"><path d="M35 0c19.33 0 35 15.67 35 35S54.33 70 35 70 0 54.33 0 35 15.67 0 35 0zm2.692 64.487c14.185-1.285 25.51-12.61 26.796-26.795H59.5v-5.384h4.987C63.203 18.123 51.877 6.798 37.692 5.51V10.5h-5.384V5.511C18.123 6.798 6.798 18.123 5.512 32.308H10.5v5.384H5.513c1.285 14.185 12.61 25.51 26.795 26.796V59.5h5.384zm0-46.987v14.807h6.731v5.385H32.308V17.5z" fill="#fff" fill-rule="evenodd"/></svg>
